X:1
T:Es Ist das Heil, 87.87.887
T:Es Ist das Heil, 87.87.887
T:German tune, ca. 1400
T:Public Domain Courtesy of the Cyber Hymnal™
C:German tune, ca. 1400
Z:Public Domain
Z:Courtesy of the Cyber Hymnal™
%%score 1 2
L:1/8
Q:1/4=110
M:4/4
K:D
V:1 treble 
V:2 bass 
V:1
 [DA] | [DA]2 [EA]2 [DA]2 [=C=c]2 | [DB]2 [DA]2 [B,G]3 [DA] | [DF]2 [B,D]2 [DF]2 [DG]2 | %4
 ([CA]2 [EB]2) [CA]3 [DA] | [DA]2 [EA]2 [DA]2 [=C=c]2 | [DB]2 [DA]2 [B,G]3 [DA] | %7
 [DF]2 [B,D]2 [DF]2 [DG]2 | ([CA]2 [EB]2) [CA]3 [DA] | [Fd]3 [E=c] [DB]2 [DA]2 | %10
 [Dd]2 [DB]2 [DA]3 [EA] | [Dd]3 [DA] [=CA]2 [B,D]2 | [DF]2 [EA]2 [DF]3 [B,D] | %13
 [=CE]2 [DG]2 [DF]2 [^CE]2 | ([B,D]2 [CE]2) [A,D]3 |] %15
V:2
 [D,F,] | [D,F,]2 [C,A,]2 [D,F,]2 [A,,E,]2 | [B,,G,]2 [D,F,]2 [G,,G,]3 [D,F,] | %3
 [D,A,]2 [G,,G,]2 [D,A,]2 [B,,G,]2 | ([A,,E,]2 [E,^G,]2) [A,,A,]3 [D,F,] | %5
 [D,F,]2 [C,A,]2 [D,F,]2 [A,,E,]2 | [B,,G,]2 [D,F,]2 [G,,G,]3 [D,F,] | %7
 [D,A,]2 [G,,G,]2 [D,A,]2 [B,,G,]2 | ([A,,E,]2 [E,^G,]2) [A,,A,]3 [D,F,] | %9
 [B,,B,]3 [=C,G,] [G,,G,]2 [D,F,]2 | [B,,G,]2 [G,,G,]2 [D,F,]3 [C,A,] | %11
 [B,,F,]3 [D,F,] [A,,E,]2 [G,,G,]2 | [D,A,]2 [C,A,]2 [D,A,]3 [G,,G,] | %13
 [=C,G,]2 [B,,G,]2 [D,A,]2 [A,,A,]2 | ([B,,F,]2 [A,,A,]2) [D,F,]3 |] %15

